X:177
T:Quick Step,25th Reg’t. RH.177
T:25th Reg’t.Quickstep. RH.177
R:March
S:Rev.R.Harrison’s MS,c1815,Cumbria
O:England
A:Temple Sowerby,Cumbria
Z:vmp.Simon Wilson. Review PJH, 2008.
M:2/4
L:1/8
Q:1/4=100
K:G
gddc|\
(B/c/d/)B/ GD|GB (A/B/c/A/)|!
BGGd|ecce|dBBd|gdcB|B2A2:|!
|:FA Ad/c/|BGG2|Bdd=f|(e/d/)(c/B/)c2|!
eaag|(g/f/e/d/) gc|BA/G/ AD|GGG2:|

